icons/bhi_mobile.svg

<svg xmlns="http://www.w3.org/2000/svg" viewBox="0 0 512 512" enable-background="new 0 0 512 512"><path fill="#010101" d="M357.8 0h-203.6c-32.1 0-58.2 26.1-58.2 58.2v395.9c0 32.1 26.1 58.2 58.2 58.2h203.5c32.1 0 58.2-26.1 58.2-58.2v-395.9c.1-32.1-26-58.2-58.1-58.2zm-102.2 480.4c-16.9 0-30.6-13.7-30.6-30.6s13.7-30.6 30.6-30.6c16.9 0 30.6 13.7 30.6 30.6s-13.7 30.6-30.6 30.6zm111-96.4h-238.6v-314.1h256v314.1h-17.4z"/></svg>

<?xml version="1.0" encoding="utf-8"?>
<!-- Generator: Adobe Illustrator 19.2.0, SVG Export Plug-In . SVG Version: 6.00 Build 0)  -->
<svg version="1.1" id="Layer_1" xmlns="http://www.w3.org/2000/svg" xmlns:xlink="http://www.w3.org/1999/xlink" x="0px" y="0px"
	 viewBox="0 0 512 512" enable-background="new 0 0 512 512" xml:space="preserve">
<path fill="#010101" d="M357.8,0H154.2C122.1,0,96,26.1,96,58.2v395.9c0,32.1,26.1,58.2,58.2,58.2h203.5c32.1,0,58.2-26.1,58.2-58.2
	V58.2C416,26.1,389.9,0,357.8,0z M255.6,480.4c-16.9,0-30.6-13.7-30.6-30.6s13.7-30.6,30.6-30.6c16.9,0,30.6,13.7,30.6,30.6
	S272.5,480.4,255.6,480.4z M366.6,384H128V69.9h256V384H366.6z"/>
</svg>
